X:217
T:B217-  I love you more and more each day
S:(1st/2)
Q:1/4=120
L:1/4
M:C|
K:C
g/2|f(d/2c/2)g(f/2e/2)|(d/2e/2) (d/2c/2)B2|\
c(B/2A/2) f(e/2d/2)|d2c3/2c/2|\
e(d/2c/2)d(c/2B/2)|c3/2d/2B3/2d/2|\
e/2d/2 (c/2B/2)A (B3/4c/4)|A2G3/2||d/2|\
BGc3/2c/2|(c/4d/4e/2) (d/2c/2)A3/2f/2|\
(f/4g/4a/2) (g/2f/2) (e/2^c/2) (d/2e/2)|e2d3/2d/2|\
AdB3/2g/2|dge(g/2f/2)|(e/2d/2) (c/2B/2)A(f/2e/2)|\
(d/2c/2) (B/2A/2)Gc3/4d/4|d2c3/2|]

